!!!OTL: 1766. Das neue Jerusalem.
!!!ARE: Europa, Mitteleuropa, Deutschland, Schlesien; Brandenburg; Sachsen
!!!SCT: E1766
!!!TXL: @@DE
!!!YEM: Copyright 1995, estate of Helmut Schaffrath.
**kern	**text
*ICvox	*
*M2/4	*
*k[b-]	*
*F:	*
=1	=1
!LO:TX:a:t=Aus der 2. Hälfte des 18. Jahrhunderts.	!
{8f	Wer
8g	hat
8a	Luſt
8b-	mit
=2	=2
4cc	mit
4ff	ʒu
=3	=3
4dd	ʒie-
4cc}	-hen
=4	=4
{8dd	in
16ccL	die
16b-J	.
8a	Stadt
8b-	Je-
=5	=5
4cc	-ru-
4g	-ſa-
=6	=6
4f	-lem?
4r}	.
=7	=7
{8f	Denn
8g	da-
8a	-rin-
8b-	-nen
=8	=8
4cc	kann
4ff	man
=9	=9
4dd	ſe-
4cc}	-hen,
=10	=10
{8dd	was
16ccL	der
16b-J	.
8a	wei-
8b-	-ſe
=11	=11
4cc	Sa-
4g	-lo-
=12	=12
4f	-mon
4r}	.
=13	=13
{8e	hat
8f	ge-
8g	-bau-
8a	-et.
=14	=14
8b-/	Schlöſſer
8a	und
8g	Kir-
8f}	-chen,
=15	=15
{8e	Al-
8f	-les
8g	iſt
8a	von
=16	=16
4b-/	Stein
4a	und
=17	=17
2g;}	Holʒ;
=18	=18
{8f	Al-
8g	-les
8a	ü-
8b-	-ver-
=19	=19
4cc	-ʒo-
4ff	-gen
=20	=20
4dd	wor-
4cc}	-den
=21	=21
{8dd	mit
16ccL	dem
16b-J	.
8a	Silber
8b-/	und
=22	=22
4cc	ro-
4g	-then
=23	=23
4f	Gold.
4r}	.
==	==
!!!AGN: Luegen - Lied, Schlaraffenland
!!!ONB: ESAC (Essen Associative Code) Database: ERK3
!!!AMT: simple duple
!!!AIN: vox
!!!EED: Helmut Schaffrath
!!!EEV: 1.0
!!!GTL: Scherz-, Spiel- und Spottlieder.
!!!URL-scan: https://rosdok.uni-rostock.de/mcrviewer/recordIdentifier/rosdok_ppn745177999/iview2/phys_0556.iview2?x=-4.404412318551749&y=1727.6418360113166&scale=0.6456904138606623&rotation=0&layout=singlePageLayout
!!!ENC: Anna Maria Matuszewska
!!!EEV: 2025/08/01
*-	*-
